dist/img/icons/meetup-icon.svg

<svg width="25" height="24" viewBox="0 0 25 24" fill="none" xmlns="http://www.w3.org/2000/svg">
<path d="M2.87584 5.86513C4.46162 5.86513 5.75177 4.57498 5.75177 2.98921C5.75177 1.40343 4.46162 0.113281 2.87584 0.113281C1.29007 0.113281 0 1.40343 0 2.98921C0 4.57498 1.29007 5.86513 2.87584 5.86513Z" fill="#7E20C8"/>
<path d="M0.283447 9.98207V15.9547C0.283447 17.3265 1.39548 18.4386 2.76729 18.4386H6.00441V22.8499C6.00441 23.186 6.2768 23.4584 6.61291 23.4584H9.48134C9.81737 23.4584 10.0898 23.186 10.0898 22.8499V16.4867C10.0898 15.3287 9.15112 14.3901 7.99321 14.3901H5.46838V9.98207C5.46838 8.55034 4.30769 7.38965 2.87596 7.38965C1.44414 7.38956 0.283447 8.55025 0.283447 9.98207Z" fill="#7E20C8"/>
<path d="M22.1242 5.86513C23.71 5.86513 25 4.57498 25 2.98921C25 1.40343 23.71 0.113281 22.1242 0.113281C20.5384 0.113281 19.2483 1.40343 19.2483 2.98921C19.2483 4.57498 20.5384 5.86513 22.1242 5.86513Z" fill="#7E20C8"/>
<path d="M19.5316 9.98207V14.3901H17.0069C15.8489 14.3901 14.9102 15.3288 14.9102 16.4867V22.8499C14.9102 23.186 15.1825 23.4584 15.5187 23.4584H18.3871C18.7231 23.4584 18.9956 23.186 18.9956 22.8499V18.4386H22.2327C23.6045 18.4386 24.7166 17.3265 24.7166 15.9547V9.98207C24.7166 8.55034 23.5559 7.38965 22.1241 7.38965C20.6923 7.38956 19.5316 8.55025 19.5316 9.98207Z" fill="#7E20C8"/>
<path d="M16.8027 11.5001C17.2108 11.5001 17.5415 11.1693 17.5415 10.7613C17.5415 10.3532 17.2107 10.0225 16.8027 10.0225H8.1973C7.78922 10.0225 7.4585 10.3533 7.4585 10.7613C7.4585 11.1693 7.7893 11.5001 8.1973 11.5001H11.7611V22.9811C11.7611 23.3892 12.0919 23.7199 12.4999 23.7199C12.9079 23.7199 13.2387 23.3891 13.2387 22.9811V11.5001H16.8027Z" fill="#7E20C8"/>
</svg>

<svg width="25" height="24" viewBox="0 0 25 24" fill="none" xmlns="http://www.w3.org/2000/svg"><path d="M2.876 5.865A2.88 2.88 0 0 0 5.752 2.99 2.88 2.88 0 0 0 2.876.113 2.88 2.88 0 0 0 0 2.99a2.88 2.88 0 0 0 2.876 2.876zM.283 9.982v5.973a2.484 2.484 0 0 0 2.484 2.484h3.237v4.41c0 .337.273.61.609.61H9.48a.608.608 0 0 0 .609-.61v-6.362a2.097 2.097 0 0 0-2.097-2.097H5.468V9.982a2.592 2.592 0 0 0-5.185 0zM22.124 5.865A2.88 2.88 0 0 0 25 2.99 2.88 2.88 0 0 0 22.124.113a2.88 2.88 0 0 0-2.876 2.876 2.88 2.88 0 0 0 2.876 2.876zM19.532 9.982v4.408h-2.525a2.097 2.097 0 0 0-2.097 2.097v6.363c0 .336.272.608.609.608h2.868a.609.609 0 0 0 .609-.608v-4.411h3.237a2.484 2.484 0 0 0 2.484-2.484V9.982a2.592 2.592 0 0 0-5.185 0z" fill="#7E20C8"/><path d="M16.803 11.5a.739.739 0 1 0 0-1.477H8.197a.739.739 0 1 0 0 1.477h3.564v11.481a.739.739 0 1 0 1.478 0v-11.48h3.564z" fill="#7E20C8"/></svg>
